svg/emoji_u1f1f7.svg

<svg enable-background="new 0 0 128 128" viewBox="0 0 128 128" xmlns="http://www.w3.org/2000/svg"><path d="m110.7 117.03-25.11-33.39c13.01-5.37 22.18-18.08 22.18-32.87 0-19.63-16.13-35.61-35.96-35.61h-37.86c-0.15 0-0.28 0.06-0.42 0.09h-6.46c-1.24 0-2.24 1-2.24 2.24v100.96c0 1.24 1 2.24 2.24 2.24h21.89c1.24 0 2.24-1 2.24-2.24v-32.08h8.64l25.2 33.51c0.45 0.59 1.15 0.94 1.89 0.94h21.89c0.9 0 1.72-0.51 2.11-1.31 0.4-0.8 0.31-1.76-0.23-2.48zm-40.58-51.65c-0.36 0.03-0.72 0.06-1.08 0.06h-17.47c-0.05 0-0.09-0.04-0.14-0.06-0.09-0.02-0.18-0.04-0.24-0.1-0.12-0.11-0.21-0.25-0.21-0.43v-28.18c0-0.17 0.08-0.32 0.21-0.43 0.06-0.05 0.14-0.07 0.22-0.09 0.06-0.02 0.1-0.07 0.16-0.07h17.46c0.42 0 0.84 0.03 1.25 0.07 7.22 0.66 12.9 6.96 12.9 14.61 0.01 7.72-5.76 14.04-13.06 14.62z" fill="#40C0E7"/></svg>

<svg width="128" height="128" style="enable-background:new 0 0 128 128;" xmlns="http://www.w3.org/2000/svg" xmlns:xlink="http://www.w3.org/1999/xlink">
  <path d="M110.7,117.03L85.59,83.64c13.01-5.37,22.18-18.08,22.18-32.87c0-19.63-16.13-35.61-35.96-35.61 H33.95c-0.15,0-0.28,0.06-0.42,0.09h-6.46c-1.24,0-2.24,1-2.24,2.24v100.96c0,1.24,1,2.24,2.24,2.24h21.89c1.24,0,2.24-1,2.24-2.24 V86.37h8.64l25.2,33.51c0.45,0.59,1.15,0.94,1.89,0.94h21.89c0.9,0,1.72-0.51,2.11-1.31C111.33,118.71,111.24,117.75,110.7,117.03z M70.12,65.38c-0.36,0.03-0.72,0.06-1.08,0.06H51.57c-0.05,0-0.09-0.04-0.14-0.06c-0.09-0.02-0.18-0.04-0.24-0.1 c-0.12-0.11-0.21-0.25-0.21-0.43V36.67c0-0.17,0.08-0.32,0.21-0.43c0.06-0.05,0.14-0.07,0.22-0.09c0.06-0.02,0.1-0.07,0.16-0.07 h17.46c0.42,0,0.84,0.03,1.25,0.07c7.22,0.66,12.9,6.96,12.9,14.61C83.19,58.48,77.42,64.8,70.12,65.38z" style="fill:#40C0E7;"/>
</svg>
